X:1
T: Burgundy's Flight
N:
C:
S:
A:
O:
R:
M:6/8
K:D
I:speed 160
%W: A1
% voice 1 (1 lines, 38 notes)
K:D
M:6/8
L:1/16
a g |f4 g2 e2 d2 c2 d6 A4 d2 e2 f2 g2 f4 e2 f6 f4 g a |b6 a2 g2 f2 e2 f2 g2 a4 g2 f2 e2 d2 A2 d2 c2 d6 d4 a g |
%W: A2
% voice 1 (1 lines, 34 notes)
f4 g2 e2 d2 c2 d6 A4 d2 e2 f2 g2 f4 e2 f6 f4 g a |b6 a2 g2 f2 e2 f2 g2 a4 g2 f2 e2 d2 A2 d2 c2 d6 d6 |
%W: B1
% voice 1 (1 lines, 26 notes)
e2 f2 e2 e2 f2 e2 e2 c2 A2 A2 d2 e2 f2 g2 f2 e4 d2 A6 A4 A2 |B6 A6 G4 z2 F4 A2
%W:
% voice 1 (1 lines, 28 notes)
d4 z2 c4 z2 B6 A2 B2 c2 |d2 g2 f2 e2 c2 e2 d2 B2 d2 c2 A2 c2 B2 c2 d2 A2 d2 c2 d6 d6 |
%W: B2
% voice 1 (1 lines, 26 notes)
e2 f2 e2 e2 f2 e2 e2 c2 A2 A2 d2 e2 f2 g2 f2 e4 d2 A6 A4 A2 |B6 A6 G4 z2 F4 A2
%W:
% voice 1 (1 lines, 28 notes)
d4 z2 c4 z2 B6 A2 B2 c2 |d2 g2 f2 e2 c2 e2 d2 B2 d2 c2 A2 c2 B2 c2 d2 A2 d2 c2 d6 d6 ||
